apps/symbolic/preferences-desktop-locale-symbolic.svg

<svg height="24" viewBox="0 0 24 24" width="24" xmlns="http://www.w3.org/2000/svg"><path d="m15.924 13.8c.072-.594.126-1.188.126-1.8s-.054-1.206-.126-1.8h3.042c.144.576.234 1.179.234 1.8s-.09 1.224-.234 1.8m-4.635 5.004c.54-.999.954-2.079 1.242-3.204h2.655c-.864 1.485-2.241 2.637-3.897 3.204m-.225-5.004h-4.212c-.09-.594-.144-1.188-.144-1.8s.054-1.215.144-1.8h4.212c.081.585.144 1.188.144 1.8s-.063 1.206-.144 1.8m-2.106 5.364c-.747-1.08-1.35-2.277-1.719-3.564h3.438c-.369 1.287-.972 2.484-1.719 3.564m-3.6-10.764h-2.628c.855-1.494 2.241-2.646 3.888-3.204-.54.999-.945 2.079-1.26 3.204m-2.628 7.2h2.628c.315 1.125.72 2.205 1.26 3.204-1.647-.567-3.033-1.719-3.888-3.204m-.738-1.8c-.144-.576-.234-1.179-.234-1.8s.09-1.224.234-1.8h3.042c-.072.594-.126 1.188-.126 1.8s.054 1.206.126 1.8m3.924-8.973c.747 1.08 1.35 2.286 1.719 3.573h-3.438c.369-1.287.972-2.493 1.719-3.573m6.228 3.573h-2.655c-.288-1.125-.702-2.205-1.242-3.204 1.656.567 3.033 1.71 3.897 3.204m-6.228-5.4c-4.977 0-9 4.05-9 9a9 9 0 0 0 9 9 9 9 0 0 0 9-9 9 9 0 0 0 -9-9z" fill="#b3b3b3" stroke-width=".9"/></svg>

<?xml version="1.0" encoding="UTF-8" standalone="no"?>
<svg
   xmlns:dc="http://purl.org/dc/elements/1.1/"
   xmlns:cc="http://creativecommons.org/ns#"
   xmlns:rdf="http://www.w3.org/1999/02/22-rdf-syntax-ns#"
   xmlns:svg="http://www.w3.org/2000/svg"
   xmlns="http://www.w3.org/2000/svg"
   xmlns:sodipodi="http://sodipodi.sourceforge.net/DTD/sodipodi-0.dtd"
   xmlns:inkscape="http://www.inkscape.org/namespaces/inkscape"
   version="1.1"
   width="24"
   height="24"
   viewBox="0 0 24 24"
   id="svg2"
   inkscape:version="0.92.1 r15371"
   sodipodi:docname="preferences-desktop-locale-symbolic.svg">
  <metadata
     id="metadata10">
    <rdf:RDF>
      <cc:Work
         rdf:about="">
        <dc:format>image/svg+xml</dc:format>
        <dc:type
           rdf:resource="http://purl.org/dc/dcmitype/StillImage" />
        <dc:title></dc:title>
      </cc:Work>
    </rdf:RDF>
  </metadata>
  <defs
     id="defs8" />
  <sodipodi:namedview
     pagecolor="#ffffff"
     bordercolor="#666666"
     borderopacity="1"
     objecttolerance="10"
     gridtolerance="10"
     guidetolerance="10"
     inkscape:pageopacity="0"
     inkscape:pageshadow="2"
     inkscape:window-width="640"
     inkscape:window-height="480"
     id="namedview6"
     showgrid="false"
     inkscape:zoom="25.291667"
     inkscape:cx="4.9621087"
     inkscape:cy="12"
     inkscape:current-layer="svg2" />
  <path
     d="m 15.924,13.8 c 0.072,-0.594 0.126,-1.188 0.126,-1.8 0,-0.612 -0.054,-1.206 -0.126,-1.8 h 3.042 c 0.144,0.576 0.234,1.179 0.234,1.8 0,0.621 -0.09,1.224 -0.234,1.8 m -4.635,5.004 c 0.54,-0.999 0.954,-2.079 1.242,-3.204 h 2.655 c -0.864,1.485 -2.241,2.637 -3.897,3.204 M 14.106,13.8 H 9.894 C 9.804,13.206 9.75,12.612 9.75,12 c 0,-0.612 0.054,-1.215 0.144,-1.8 h 4.212 c 0.081,0.585 0.144,1.188 0.144,1.8 0,0.612 -0.063,1.206 -0.144,1.8 M 12,19.164 C 11.253,18.084 10.65,16.887 10.281,15.6 h 3.438 C 13.35,16.887 12.747,18.084 12,19.164 M 8.4,8.4 H 5.772 C 6.627,6.906 8.013,5.754 9.66,5.196 9.12,6.195 8.715,7.275 8.4,8.4 M 5.772,15.6 H 8.4 c 0.315,1.125 0.72,2.205 1.26,3.204 C 8.013,18.237 6.627,17.085 5.772,15.6 M 5.034,13.8 C 4.89,13.224 4.8,12.621 4.8,12 4.8,11.379 4.89,10.776 5.034,10.2 H 8.076 C 8.004,10.794 7.95,11.388 7.95,12 c 0,0.612 0.054,1.206 0.126,1.8 M 12,4.827 c 0.747,1.08 1.35,2.286 1.719,3.573 H 10.281 C 10.65,7.113 11.253,5.907 12,4.827 M 18.228,8.4 H 15.573 C 15.285,7.275 14.871,6.195 14.331,5.196 15.987,5.763 17.364,6.906 18.228,8.4 M 12,3 C 7.023,3 3,7.05 3,12 a 9,9 0 0 0 9,9 9,9 0 0 0 9,-9 9,9 0 0 0 -9,-9 z"
     id="path4"
     style="fill:#b3b3b3;fill-opacity:1;stroke-width:0.89999998"
     inkscape:connector-curvature="0" />
</svg>
